X: 1
T: Crowley's
M: 4/4
L: 1/8
R: reel
K: Dmaj
e|f2ed edBc|dB{c}BA BAFA|~B3d AFDF|GE{F}ED EDB,e|
fd~d2 ec~c2|dB{c}BA BAFA|BcdB AGFD|EGAG FDD|
|:A|cd{e}dc dAFA|BGBd cA~A2|BdAd GdFd|EFGE FDD:|
